X: 3
T: Ragtime Annie
R: reel
M: 4/4
L: 1/8
K: Dmaj
A||FAAA BAGE|FFGE D3 A|FAAA BAAA|1 c4 cc2B|2 BccB cBcB|| ABcA BBcB|ABcA BBcB|ABcd e(3fed c|1 dA FA D2 AG:|2 dA FA D2 (3efg|||a2 aa agfe|d2 (3Bce d2 (3efg|a2 aa agfd|B6 dB|g3g gfef|gggf gfef|(3gfe fd ecdB|cABG ABde|faaa agfe|d2 (3Bce d2 Bc|dzdd ^c2 =c2 |B6 dB|gBdG (3def gd |fAdf Adfd|ABcd (3efe dc|dAFA FD3||


Tune 3954	Setting 16822

